!!!PDT:	1923
!!!LANG: Non-Tone
!!!LING_GROUP: Siouan
!!!REG: Dakotas
!!!COM: Anon.
!!!OTL: Song of the Shell
!!!ODT: <1918//
!!!MPN: Wopite [Scattered Corn, Mrs. Holding Eagle]
!!!MLC: Fort Berthold Reservation, North Dakota, United States of America
!! Song was recorded during either the summer of 1912, 1915, or 1918.
!!!AGN: monody
!!!SOCIAL_FUNCTION: Ceremony of the Little River Women Society
!!!AMT: irregular
!!!RWG: Transcribed pitches, durations, and meters are only approximate.
!! Drum Tempo: MM160
!! Drum-rhythm: (4 4 4 4)
**kern
*ICvox
*Ifemale
*clefG2
*k[]
*M2/4
*MM160
=1-
4cc
[4cc
=2
8cc]
8g
4g
*M3/4
=3
4cc
2cc
*M2/4
=4
4dd
8dd
8cc
=5
8dd
8cc
4cc
*M3/4
=6
8cc
8g
4.g
8e
=7
4g
2g
*M2/4
=8
4cc
8cc
8g
=9
8cc
8g
4g
=10
8g
8e
8e
8d
=11
4c
8.c
16G
=12
2c
=13
[2c
=14
8c]
8e
16e
8.c
=15
16e
8.c
4c
=16
4G
4G
=17
2G
=18
4.G
8g
=19
2g
=20
8g
8e
4e
*M3/4
=21
4g
2g
*M2/4
=22
4cc
(8cc
8g)
=23
(8cc
8g)
4g
=24
(8g
8e)
(8e
8d)
=25
4c
8.c
16G
=26
2c
=27
[2c
=28
8c]
8e
16e
8.c
=29
16e
8.c
4c
=30
4G
4G
=31
2G
=32
2G
==
*-
!!!CNT: Mandan
!!!TXO: Mandan
!!!OCY: United States
!!!OCL: Frances Densmore
!!!YOR: Frances Densmore, "Mandan and Hidatsa Music",
!!!YOR: Bulletin 80, page 105, No. 42
!!!PPR: Smithsonian Institution, Bureau of American Ethnology
!!!PPR: Government Printing Office
!!!PDT: 1923
!!!PPP: Washington, DC, United States of America
!!!YEC: Electronic Copyright 2000 David Huron
!!!YER: August 2000
!!!YEN: United States of America
!!!ENC: David Huron
!!!RDT: August 16, 2000
!!!EEV: Release 1.0
!!!AIN: tom, vox
